X: 36308
T: Seamus O'Kane's
R: mazurka
M: 3/4
K: Gmajor
|:Bc|d2 d2 cB|c2 F2 GA|AB cB ce|d2 G2 Bc|
d2 d2 cB|c2 F2 AB|A2 G2 F2|G4:|
df|g2 g2 fe|f2 c2 df|ef gf ga|gf d2 df|
g2 g2 fe|f2 c2 dg|e2 a2 ^g2|a4 df|
g2 g2 fe|fe c2 df|ef gf ga|g2 d2 ef|
g2 g2 fe|f2 c2 AB|A2 G2 F2|G4||

